X: 8867
T: Cullintra, The
R: jig
M: 6/8
K: Dmajor
|:A|def edB|AFA B2 F|ABA F2 D|GFG EFG|
def edB|AFA B2 F|ABA F2 E|FDD D2:|
|:F|AFA AFA|BGB BGB|c2 d e2 c|BcB AFA|
def edB|AFA B2 F|ABA F2 E|FDD D2:|

